X: 4
T: No_110_Going_Around_the_World.krn
N: Derived from No_110_Going_Around_the_World.krn
%%abc-version 2.0
%%abcx-abcm2ps-target-version 5.9.1 (29 Sep 2008)
%%abc-creator hum2abc beta
%%abcx-conversion-date 2019/03/15 08:29:13
%%humdrum-veritas 343942075
%%humdrum-veritas-data 1589468994
%%linebreak <none>
%%barnumbers 0
L: 1/16
M: 3/4
%%staves {1 2}
V: 1 clef=bass
V: 2 clef=bass
K: D
[V:1] [K:clef=bass][M:3/4]E3E E3D (DB,2)B, | 
[V:2] [K:clef=bass][M:3/4]G,,2G,,2 G,,2G,,2 G,,2G,,2 | 
[V:1] B,4B,3B,B,4 | 
[V:2] z12 | 
[V:1] D12 | 
[V:2] z12 | 
[V:1] D4D3D (DB,2)B, | 
[V:2] z12 | 
[V:1] B,4B,3B,B,4 | 
[V:2] z12 | 
[V:1] B,12 | 
[V:2] z12 | 
[V:1] (DB,2)D (D2B,3/)G,/ (G,E,2)E, | 
[V:2] z12 | 
[V:1] E,4E,3G,G,4 | 
[V:2] z12 | 
[V:1] (G,8E,4) ||  
[V:2] z12 ||  
[V:1] [M:2/4](B,G,3)(G,4 | 
[V:2] [M:2/4]z8 | 
[V:1] E,3)E, (E,D,2)D, ||  
[V:2] z8 ||  
[V:1] [M:3/4]D,4(D,B,,2)B,,B,,4 ||  
[V:2] [M:3/4]z12 ||  
[V:1] [M:2/4]D,8 | 
[V:2] [M:2/4]z8 | 
[V:1] E,4(E,4 | 
[V:2] z8 | 
[V:1] D,3)E, (E,D,2)D, ||  
[V:2] z8 ||  
[V:1] [M:3/4]D,4(D,B,,2)B,,B,,4 | 
[V:2] [M:3/4]z12 | 
[V:1] B,,12 |]  
[V:2] z12 |]  



